X:1
T:Pretty Polly Perkins of Paddington Green
M:3/4
L:1/8
K:A
 z4 E/2 E D/2| C3/2 E/2 A2 B2| A2 C2E-E| D2 C2 B,2| A,4A-A| B2 E2 cc|\
 B2 E2 GG| A2 G2 F2| E4 E3/2- D/2|C-E A2 B2| AA E2E-E| F2 B2 B2| E4 AB|\
c-Bd-cB-A| B2 F2A-A| E2 F2 G2| A4 E/2 E D/2| CC A2 AB| AA E2 E2| F2 B2 B2|\
 E4A-B| cBd cB A|B-B F2A-A| E2 F2 G2| A4 z2|
